assets/icons/kids/courses.svg

<svg width="24" height="24" viewBox="0 0 24 24" fill="none" xmlns="http://www.w3.org/2000/svg">
<path d="M5.29761 2.40039V14.7964L13.1066 16.4838C13.5708 6.77796 8.09401 3.05076 5.29761 2.40039Z" fill="#41A5EE"/>
<path d="M18.51 2.40039V14.7964L10.701 16.4838C10.2368 6.77796 15.7136 3.05076 18.51 2.40039Z" fill="#41A5EE"/>
<path d="M4.65116 3.43359L3.53418 4.71015V8.06084L11.8986 14.1543V9.60095C11.6307 6.17253 6.95536 4.06087 4.65116 3.43359Z" fill="#E6EEF3"/>
<path d="M19.1472 3.43359L20.2642 4.71015V8.06084L11.8998 14.1543V9.60096C12.1676 6.17253 16.843 4.06087 19.1472 3.43359Z" fill="#E6EEF3"/>
<path d="M10.462 8.79526L3.06084 4.60476C2.7841 4.44807 2.44116 4.64799 2.44116 4.96602V17.0508C2.44116 17.2054 2.5271 17.3473 2.66417 17.4188L10.0653 21.283C10.3417 21.4273 10.6726 21.2268 10.6726 20.915V9.15651C10.6726 9.00695 10.5922 8.86895 10.462 8.79526Z" fill="#FF8AE0"/>
<path d="M13.538 8.79526L20.9392 4.60476C21.2159 4.44807 21.5588 4.64799 21.5588 4.96602V17.0508C21.5588 17.2054 21.4729 17.3473 21.3358 17.4188L13.9347 21.283C13.6583 21.4273 13.3274 21.2268 13.3274 20.915V9.15651C13.3274 9.00695 13.4078 8.86895 13.538 8.79526Z" fill="#FF8AE0"/>
<path d="M20.1423 7.52689L14.8526 10.6542C14.8042 10.6829 14.7744 10.735 14.7744 10.7914V13.2626C14.7744 13.3836 14.9041 13.4605 15.0103 13.4023L20.3 10.5038C20.351 10.4758 20.3827 10.4223 20.3827 10.3641V7.66403C20.3827 7.54065 20.2485 7.4641 20.1423 7.52689Z" fill="#FFD740"/>
<rect x="10.6633" y="8.79492" width="2.66597" height="12.6138" rx="0.41514" fill="#FF70D9"/>
<path opacity="0.2" d="M10.663 19.9651C4.07108 16.8544 3.16336 13.0989 2.44551 10.957V15.7563C2.44548 17.2713 2.36918 17.2268 2.83993 17.4732C5.11221 18.6647 9.72575 21.2458 10.1784 21.2663C10.8322 21.296 10.6406 20.1816 10.663 19.9651Z" fill="#960B71"/>
</svg>

<svg xmlns="http://www.w3.org/2000/svg" width="24" height="24" fill="none" viewBox="0 0 24 24"><path fill="#41a5ee" d="M5.298 2.4v12.396l7.809 1.688C13.57 6.778 8.094 3.05 5.297 2.4"/><path fill="#41a5ee" d="M18.51 2.4v12.396l-7.809 1.688C10.237 6.778 15.714 3.05 18.51 2.4"/><path fill="#e6eef3" d="M4.651 3.434 3.534 4.71v3.35l8.365 6.094V9.601C11.63 6.173 6.955 4.06 4.65 3.434m14.497 0 1.117 1.276v3.35L11.9 14.155V9.601c.268-3.428 4.943-5.54 7.247-6.167"/><path fill="#ff8ae0" d="m10.462 8.795-7.401-4.19a.415.415 0 0 0-.62.361v12.085c0 .154.086.296.223.368l7.401 3.864a.415.415 0 0 0 .608-.368V9.157c0-.15-.08-.288-.211-.362m3.076 0 7.401-4.19a.415.415 0 0 1 .62.361v12.085a.42.42 0 0 1-.223.368l-7.401 3.864a.415.415 0 0 1-.608-.368V9.157c0-.15.08-.288.211-.362"/><path fill="#ffd740" d="m20.142 7.527-5.29 3.127a.16.16 0 0 0-.078.137v2.472c0 .12.13.197.236.14l5.29-2.9a.16.16 0 0 0 .083-.139v-2.7a.16.16 0 0 0-.24-.137"/><rect width="2.666" height="12.614" x="10.663" y="8.795" fill="#ff70d9" rx=".415"/><path fill="#960b71" d="M10.663 19.965c-6.592-3.11-7.5-6.866-8.217-9.008v4.8c0 1.514-.077 1.47.394 1.716 2.272 1.192 6.886 3.773 7.338 3.793.654.03.463-1.084.485-1.3" opacity=".2"/></svg>
